img/svg/rwtx.svg

<svg width="26" height="26" viewBox="0 0 26 26" fill="none" xmlns="http://www.w3.org/2000/svg">
<g id="Group">
<path id="Ellipse 46" d="M25 13C25 19.6274 19.6274 25 13 25C6.37258 25 1 19.6274 1 13C1 6.37258 6.37258 1 13 1C19.6274 1 25 6.37258 25 13Z" stroke="#58D068" stroke-width="2"/>
<path id="Vector" d="M14 17L9 20.5C9.39336 20.8666 9.62177 20.8924 10.2022 20.8924H11.9287H19.6807L14 17Z" fill="#58D068"/>
<path id="Vector_2" d="M15.9819 10.7327L8 4V9.04765L11.3668 11.887C11.7131 12.1793 11.7131 12.7125 11.3668 13.0048L8 15.8447V18.6909C8 19.3269 8.27009 19.8991 8.70124 20.301L13.0499 16.633L15.9825 14.1597C17.0443 13.2642 17.0443 11.6288 15.9819 10.7327Z" fill="#58D068"/>
</g>
</svg>

<svg width="26" height="26" viewBox="0 0 26 26" fill="none" xmlns="http://www.w3.org/2000/svg"><g id="Group"><path id="Ellipse 46" d="M25 13c0 6.627-5.373 12-12 12S1 19.627 1 13 6.373 1 13 1s12 5.373 12 12z" stroke="#58D068" stroke-width="2"/><path id="Vector" d="M14 17l-5 3.5c.393.367.622.392 1.202.392h9.479L14 17z" fill="#58D068"/><path id="Vector_2" d="M15.982 10.733L8 4v5.048l3.367 2.839a.731.731 0 010 1.118L8 15.845v2.846c0 .636.27 1.208.701 1.61l4.349-3.668 2.932-2.473a2.241 2.241 0 000-3.427z" fill="#58D068"/></g></svg>
